X: 4373
T: Bonapart's Expedition
R: polka
M: 2/4
K: Gmajor
|:D|G>A GB|AG GB|AG GB|d3 B|G>A GB|AG GD|ED EF|G3:|
|:B/c/|dB Ge|cA Fd|BG Ec|AF D2|GA GB|AG GD|ED EF|G3:|

